X:17
T:Trek maar aan't touwtje
O:belgium
C:Trad.
Z:Bart Vanhaverbeke 
L:1/8
M:C
K:G
"G"GFGA "D7"BABc | "G"e2 d2 d3 B | "Am"d2 c2 "D7"c3 A | "G" c2 B2 B4 |
"G"GFGA "D7"BABc | "G"e2 d2 d3 B | "Am"d2 c2 "D7"B2 A2 | "G" G2 B2 G2 d2 :|
"G"g2 d2 dc B2 | "G"g2 d2 dc B2 | "Am"A3 B "D7"cDcd | "G"e2 d2 "D7"d4 |
"G"g2 d2 dc B2 | "G"g2 d2 dc B2 | "Am"A3 B "D7"cDcd | "G"e2 d2 G4 :|
